X: 34162
T: Reel For Saileog
R: reel
M: 4/4
K: Cmajor
|:~c2 Bc AGED|CEA,B, CD (3DEF|Ad ~d2 dfed|cAGE F3 G|
Add^c dfed|cAGD FCFG|Ad{d}cA G_BAG|1 FAEF D2AB:|2 FAEF D2 C[CG,]||
|:[C2G,2] DC D2 {F}ED|DEA,B, CD (3EFG|Ad ~d2 dfed|cAGE F3G|
AGAB cdcA|GEDE CEDE|F2 (3F/G/F/E DCA,G,|A,DDC D3C:|

